dealnox/img/icon-look.svg

<svg width="29" height="17" viewBox="0 0 29 17" fill="none" xmlns="http://www.w3.org/2000/svg">
<g clip-path="url(#clip0_216_2124)">
<path d="M29 8.15421V8.85853C28.8726 9.32162 28.6845 9.74715 28.377 10.121C24.0938 15.3618 18.6608 17.6702 12.0758 16.8338C7.66518 16.2733 4.02262 14.1151 1.07617 10.6827C0.612852 10.1427 0.147832 9.59983 0 8.85853V8.15421C0.140469 7.46632 0.54998 6.94394 0.98668 6.44153C5.52982 1.2178 11.169 -0.86464 17.8452 0.328013C21.9471 1.06051 25.3291 3.22219 28.0524 6.48614C28.4681 6.98034 28.8561 7.49156 29 8.15421ZM21.5348 8.50637C21.5354 7.06465 21.1235 5.65509 20.3512 4.45594C19.5788 3.25678 18.4806 2.32189 17.1955 1.76947C15.9104 1.21705 14.496 1.07192 13.1313 1.35241C11.7666 1.63291 10.5128 2.32644 9.52847 3.34532C8.54413 4.3642 7.87343 5.66266 7.60121 7.07652C7.32898 8.49037 7.46745 9.95613 7.9991 11.2884C8.53075 12.6208 9.43171 13.7598 10.588 14.5615C11.7444 15.3632 13.1042 15.7917 14.4955 15.7926C15.4196 15.7941 16.335 15.6066 17.1891 15.2411C18.0433 14.8756 18.8195 14.339 19.4734 13.6623C20.1272 12.9855 20.6458 12.1818 20.9995 11.297C21.3533 10.4123 21.5351 9.46401 21.5348 8.50637ZM8.87445 2.22616L8.74645 2.27312C5.85777 3.3883 3.45564 5.20427 1.52137 7.6876C1.05748 8.28275 1.05918 8.72647 1.52137 9.31986C3.03772 11.2935 4.95516 12.8967 7.13729 14.0153C7.70369 14.3088 8.29729 14.5506 8.87785 14.8159C5.42334 11.4041 5.39502 5.66912 8.87445 2.22616ZM20.0893 14.7566C20.1199 14.7701 20.1295 14.7789 20.1363 14.7772C20.2162 14.7496 20.2972 14.722 20.3759 14.6909C23.2255 13.5605 25.597 11.7515 27.5047 9.287C27.9301 8.73763 27.9284 8.27512 27.5047 7.7234C26.17 5.96566 24.5106 4.50128 22.6234 3.41588C21.8214 2.95572 20.9735 2.58126 20.1459 2.16805L20.0893 2.25316C21.784 3.96583 22.7055 6.03068 22.7089 8.49111C22.7123 10.9515 21.7993 13.0258 20.091 14.7561L20.0893 14.7566Z" fill="white"/>
<path d="M11.4923 8.48819C11.4955 7.87152 11.6753 7.26972 12.0087 6.75894C12.3422 6.24817 12.8144 5.85138 13.3656 5.61881C13.9167 5.38624 14.5221 5.32833 15.105 5.45242C15.688 5.5765 16.2223 5.87701 16.6403 6.31589C17.0584 6.75478 17.3414 7.31232 17.4536 7.91795C17.5657 8.52358 17.502 9.15007 17.2704 9.71814C17.0388 10.2862 16.6498 10.7703 16.1526 11.1092C15.6554 11.4481 15.0723 11.6265 14.4772 11.6218C14.0826 11.6195 13.6922 11.5366 13.3285 11.3778C12.9648 11.219 12.6349 10.9875 12.3577 10.6964C12.0804 10.4054 11.8613 10.0605 11.7128 9.6816C11.5643 9.30269 11.4894 8.89715 11.4923 8.48819ZM14.4891 6.61C14.1283 6.6122 13.7761 6.72516 13.4771 6.9346C13.1782 7.14405 12.9458 7.44059 12.8094 7.78678C12.6729 8.13298 12.6385 8.5133 12.7105 8.87974C12.7825 9.24618 12.9577 9.5823 13.2139 9.84566C13.4701 10.109 13.7958 10.2878 14.15 10.3595C14.5042 10.4311 14.8709 10.3924 15.2039 10.2482C15.5369 10.1041 15.8212 9.86089 16.0209 9.54941C16.2206 9.23793 16.3268 8.87213 16.326 8.49817C16.3269 8.24879 16.2799 8.00172 16.1877 7.77137C16.0955 7.54102 15.9599 7.33201 15.789 7.15652C15.618 6.98103 15.415 6.84258 15.1918 6.74925C14.9686 6.65592 14.7298 6.60958 14.4891 6.61293V6.61Z" fill="white"/>
</g>
<defs>
<clipPath id="clip0_216_2124">
<rect width="29" height="17" fill="white"/>
</clipPath>
</defs>
</svg>

<svg width="29" height="17" fill="none" xmlns="http://www.w3.org/2000/svg"><g clip-path="url(#clip0_216_2124)" fill="#fff"><path d="M29 8.154v.705c-.127.463-.316.888-.623 1.262-4.283 5.24-9.716 7.55-16.301 6.713-4.41-.56-8.053-2.719-11-6.151C.613 10.143.148 9.6 0 8.859v-.705c.14-.688.55-1.21.987-1.712C5.53 1.218 11.169-.865 17.845.328c4.102.733 7.484 2.894 10.207 6.158.416.494.804 1.006.948 1.668zm-7.465.352a7.48 7.48 0 0 0-1.184-4.05 7.096 7.096 0 0 0-3.155-2.687 6.807 6.807 0 0 0-4.065-.417 6.962 6.962 0 0 0-3.603 1.993 7.375 7.375 0 0 0-1.927 3.732A7.535 7.535 0 0 0 8 11.288a7.24 7.24 0 0 0 2.589 3.274 6.862 6.862 0 0 0 3.908 1.23 6.815 6.815 0 0 0 2.693-.55 7.018 7.018 0 0 0 2.284-1.58A7.306 7.306 0 0 0 21 11.297a7.513 7.513 0 0 0 .535-2.79zm-12.66-6.28l-.129.047c-2.888 1.115-5.29 2.931-7.225 5.415-.464.595-.462 1.038 0 1.632a16.695 16.695 0 0 0 5.616 4.695c.567.294 1.16.536 1.74.8-3.454-3.41-3.482-9.146-.003-12.589zm11.214 12.53c.03.014.04.023.047.021.08-.027.161-.055.24-.086 2.85-1.13 5.221-2.94 7.129-5.404.425-.55.423-1.012 0-1.564a16.407 16.407 0 0 0-4.882-4.307c-.802-.46-1.65-.835-2.477-1.248l-.057.085c1.695 1.713 2.617 3.778 2.62 6.238.003 2.46-.91 4.535-2.618 6.265h-.002z"/><path d="M11.492 8.488a3.196 3.196 0 0 1 .517-1.73c.333-.51.805-.907 1.357-1.14a2.91 2.91 0 0 1 1.739-.166 2.978 2.978 0 0 1 1.535.864c.418.439.701.996.814 1.602a3.222 3.222 0 0 1-.184 1.8 3.094 3.094 0 0 1-1.117 1.391 2.932 2.932 0 0 1-3.795-.413 3.121 3.121 0 0 1-.645-1.014 3.21 3.21 0 0 1-.22-1.194zM14.49 6.61c-.36.002-.713.115-1.012.325a1.88 1.88 0 0 0-.668.852c-.136.346-.17.726-.098 1.093.072.366.247.702.503.966.256.263.582.442.936.514.354.071.72.032 1.054-.112.333-.144.617-.387.817-.699.2-.311.306-.677.305-1.05 0-.25-.046-.497-.138-.728a1.885 1.885 0 0 0-.399-.614 1.808 1.808 0 0 0-.597-.408 1.757 1.757 0 0 0-.703-.136V6.61z"/></g><defs><clipPath id="clip0_216_2124"><path fill="#fff" d="M0 0h29v17H0z"/></clipPath></defs></svg>
